X:1
T:Gott b'hüte dich
T:Gott b'hüte dich
T:Leonhard Lechner (c. 1553-1606)
T: 
T:559
C:Leonhard Lechner
%%score 1 2 3 4
L:1/8
Q:1/2=60
M:2/2
K:G
V:1 treble nm="S"
V:2 treble nm="A"
V:3 treble-8 nm="T"
V:4 bass nm="B"
V:1
"^\n" A4 A2 A2 |: c6 B2 | B2 A2 ^G2 G2 | A6 G2 | G4 E2 E2- | E2 E2 E2 A2 |1 ^G4 A4 | %7
w: 1. Gott b'hü- te|dich, des-|glei- chen mich. Ich|bitt, wöllst|dich von mir|_ mit- nich- ten|len- ken.|
w: 2. Ich wollt, du|wüßt', wie|schwer mir ist, daß|ich von|dir ein Zeit-|* lang mich muß|keh- ren;|
w: 3. Doch ü- bers|Jahr komm|ich für- wahr wied'-|rum zu|dir, tu dich|_ so hart nit|grä- men.|
 z2 A2 A2 A2 :|2 ^G4 A2 A2 || ^G2 A2 G2 E2 | ^D2 E2 F4 | G4 F2 E2 | ^D2 D4 E2- | E2 ^D2 E2 E2 | %14
w: Gott b'- hüte|len- ken. So|will auch ich, so|will auch ich,|so will auch|ich, so will|_ auch ich an|
w: Ich wollt du|keh- ren, kanns|nit um- gehn, kanns|nit um- gehn,|kanns nit um-|gehn, kanns nit|_ um- gehn die|
w: und ü- bers|grä- men, Will|den- noch jetzt will|den- noch jetzt,|will den- noch|jetzt, will den-|* noch jetzt ein|
 G6 G2 | A4 B4 | c8- | c4 B4 | z2 A2 A2 A2 | ^G8 | z2 A2 B2 c2 | (B6 A2 | G4) A4 | c4 B4 | %24
w: dich ge-|wiss- lich|den-|* ken|ohn' Unt- er-|laß,|Ohn Un- ter-|laß, _||Schei- den|
w: Not tut's|so be-|geh-|* ren,|ist Ü- ber-|maß,|ist Ü- ber-|maß. _|_ Ach,||
w: freund- lich|Ur- laub|neh-|* men,|ich muß auf|d'Straß,|ich muss auf|d'Straß, _|_ _||
 A4 G2 E2 | G4 =F4 | E4 E4- | E4 c4- | c4 B4 | A4 G2 E2 | G4 =F4 | E8 |] %32
w: macht uns die|Äug- lein|nass, ach|_ Schei-|* den|macht uns die|Äug- lein|nass.|
w: ||||||||
w: ||||||||
V:2
 E4 E2 E2 |: A6 G2 | G2 E2 E2 E2 | =F4 E4 | D4 C2 C2- | C2 C2 C2 E2 |1 E4 E4 | z2 E2 E2 E2 :|2 %8
w: 1.Gott b'hü- te|dich, des-|glei- chen mich. Ich|bitt, wöllst|dich von mir|_ mit- nich- ten|len- ken.|Gott b'- hüte|
w: 2.Ich wollt, du|wüßt', wie|schwer mir ist, daß|ich von|dir ein Zeit-|* lang mich muß|keh- ren;|Ich wollt du|
w: 3.Doch ü- bers|Jahr komm|ich für- wahr wied'-|rum zu|dir, tu dich|_ so hart nit|grä- men.|und ü- bers|
 E4 E2 E2 || E2 D2 E2 G2 | F2 E2 ^D4 | z2 E2 ^D2 E2 | F6 B,2 | B,4 B,4 | E8 | C4 (E4- | E4 D2 C2 | %17
w: len- ken. So|will auch ich, so|will auch ich,|so will auch|ich, an|dich ge-|wiss-|lich den-||
w: keh- ren, kanns|nit um- gehn, kanns|nit um- gehn,|kanns nit um-|gehn, die|Not tut's|so|be- geh-||
w: grä- men, Will|den- noch jetzt will|den- noch jetzt,|will den- noch|jetzt, ein|freund- lich|Ur-|laub neh-||
 E4) D4 | =F4 E2 D2 | B,4 E4 | E6 C2 | (G4 F4 | E4) E4 | A4 G4 | E4 E2 C2 | D4 D4 | B,8 | E8 | %28
w: * ken|ohn' Unt- er-|laß, ohn'|Unt- er-|laß, _||Schei- den|macht uns die|Äug- lein|nass,|Ach,|
w: * ren,|ist Ü- ber-|maß, ist|Ü- ber-|maß, _|_ Ach,||||||
w: * men,|ich muß auf|d'Straß, ich|muß auf|d'Straß, _|_ _||||||
 A4 G4 | E4 E2 C2 | D4 D4 | B,8 |] %32
w: Schei- den|macht uns die|Äug- lein|nass.|
w: ||||
w: ||||
V:3
 ^c4 c2 c2 |: e6 e2 | d2 c2 B2 B2 | d4 c4 | B4 G2 G2- | G2 G2 G2 c2 |1 B4 ^c4 | z2 ^c2 c2 c2 :|2 %8
w: 1.Gott b'hü- te|dich, des-|glei- chen mich. Ich|bitt, wöllst|dich von mir|_ mit- nich- ten|len- ken.|Gott b'- hüte|
w: 2.Ich wollt, du|wüßt', wie|schwer mir ist, daß|ich von|dir ein Zeit-|* lang mich muß|keh- ren;|Ich wollt du|
w: 3.Doch ü- bers|Jahr komm|ich für- wahr wied'-|rum zu|dir, tu dich|_ so hart nit|grä- men.|und ü- bers|
 B4 c2 c2 || B2 A2 B2 e2 | B2 c2 B4- | B4 z4 | B4 F2 G2 | F4 G4 | c4 c4 | e2 E2 (G4- | G2 FE F4) | %17
w: len- ken. So|will auch ich, so|will auch ich,|_|so will auch|ich, an|dich ge-|wiss- lich den-||
w: keh- ren, kanns|nit um- gehn, kanns|nit um- gehn,|_|kanns nit um-|gehn, die|Not tut's|so be- geh-||
w: grä- men, Will|den- noch jetzt will|den- noch jetzt,|_|will den- noch|jetzt, ein|freund- lich|Ur- laub neh-||
 G8 | A4 A2 =f2 | e4 B4 | c4 B2 (e2- | e2 ^d^c d4) | z4 A4 | =f4 d4 | c4 B2 A2 | B4 A4 | ^G8 | A8 | %28
w: ken|ohn' Unt- er-|laß, ohn'|Unt- er- laß,|_ _ _ _||Schei- den|macht uns die|Äug- lein|nass,|Ach,|
w: ren,|ist Ü- ber-|maß, ist|Ü- ber- maß,|_ _ _ _|Ach,||||||
w: men,|ich muß auf|d'Straß, ich|muß auf d'Straß,|_ _ _ _|||||||
 =f4 d4 | c4 B2 A2 | B4 A4 | ^G8 |] %32
w: Schei- den|macht uns die|Äug- lein|nass.|
w: ||||
w: ||||
V:4
 A,,4 A,,2 A,,2 |: A,6 E,2 | G,2 A,2 E,4 | z2 D,2 A,2 C2 | G,4 C,2 C,2- | C,2 C,2 C,2 A,,2 |1 %6
w: 1.Gott b'hü- te|dich, des-|glei- chen mich.|Ich bitt, wöllst|dich von mir|_ mit- nich- ten|
w: 2.Ich wollt, du|wüßt', wie|schwer mir ist,|daß ich von|dir ein Zeit-|* lang mich muß|
w: 3.Doch ü- bers|Jahr komm|ich für- wahr|wied'- rum zu|dir, tu dich|_ so hart nit|
 E,4 A,,4 | z2 A,,2 A,,2 A,,2 :|2 E,4 A,,2 A,2 || E,2 =F,2 E,4 | z8 | E,4 B,,2 C,2 | B,,8- | %13
w: len- ken.|Gott b'- hüte|len- ken. So|will auch ich,||so will auch|ich,|
w: keh- ren;|Ich wollt du|keh- ren, kanns|nit um- gehn,||kanns nit um-|gehn,|
w: grä- men.|und ü- bers|grä- men, Will|den- noch jetzt||will den- noch|jetzt,|
 B,,4 E,4 | C,6 B,,2 | A,,4 G,,4 | A,,8 | G,,8 | D,4 ^C,2 D,2 | E,8 | A,4 ^G,2 A,2 | B,8 | C8 | %23
w: _ an|dich ge-|wiss- lich|den-|ken|ohn' Unt- er-|laß,|ohn' Unt- er-|laß,||
w: _ die|Not tut's|so be-|geh-|ren,|ist Ü- ber-|maß,|ist Ü- ber-|maß,|Ach,|
w: _ ein|freund- lich|Ur- laub|neh-|men,|ich muß auf|d'Straß,|ich muß auf|d'Straß,||
 =F,4 G,4 | A,4 E,2 A,,2 | G,,4 D,4 | E,8 | C8 | =F,4 G,4 | A,4 E,2 A,,2 | G,,4 D,4 | E,8 |] %32
w: Schei- den|macht uns die|Äug- lein|nass,|Ach,|Schei- den|macht uns die|Äug- lein|nass.|
w: |||||||||
w: |||||||||

